svgs/sharp-solid/user-astronaut.svg

<svg xmlns="http://www.w3.org/2000/svg" viewBox="0 0 448 512"><!--! Font Awesome Pro 6.6.0 by @fontawesome - https://fontawesome.com License - https://fontawesome.com/license (Commercial License) Copyright 2024 Fonticons, Inc. --><path d="M370.7 96C346 39.5 289.6 0 224 0S102 39.5 77.3 96L48 96l0 128 29.3 0c24.7 56.5 81.1 96 146.7 96s122-39.5 146.7-96l29.3 0 0-128-29.3 0zM336 128l0 32c0 53-43 96-96 96l-32 0c-53 0-96-43-96-96l0-32 32-32 160 0 32 32zM192 160l-16-32-16 32-32 16 32 16 16 32 16-32 32-16-32-16zM97 304l-49 0L0 512l128 0 0-96 192 0 0 96 128 0L400 304l-49 0c-33.8 29.9-78.3 48-127 48s-93.2-18.1-127-48zm95 144l-32 0 0 16 0 48 32 0 0-48 0-16zm80 32a16 16 0 1 0 0-32 16 16 0 1 0 0 32z"/></svg>

<svg xmlns="http://www.w3.org/2000/svg" viewBox="0 0 448 512"><!--! Font Awesome Pro 6.4.2 by @fontawesome - https://fontawesome.com License - https://fontawesome.com/license (Commercial License) Copyright 2023 Fonticons, Inc. --><path d="M370.7 96C346 39.5 289.6 0 224 0S102 39.5 77.3 96H48V224H77.3c24.7 56.5 81.1 96 146.7 96s122-39.5 146.7-96H400V96H370.7zM336 128v32c0 53-43 96-96 96H208c-53 0-96-43-96-96V128l32-32H304l32 32zM192 160l-16-32-16 32-32 16 32 16 16 32 16-32 32-16-32-16zM97 304H48L0 512H128V416H320v96H448L400 304H351c-33.8 29.9-78.3 48-127 48s-93.2-18.1-127-48zm95 144H160v16 48h32V464 448zm80 32a16 16 0 1 0 0-32 16 16 0 1 0 0 32z"/></svg>
